site/assets/images/data-entry/img-picklist.svg

<?xml version="1.0" encoding="UTF-8" standalone="no"?>
<svg width="346px" height="287px" viewBox="0 0 346 287" version="1.1" xmlns="http://www.w3.org/2000/svg" xmlns:xlink="http://www.w3.org/1999/xlink" xmlns:sketch="http://www.bohemiancoding.com/sketch/ns">
    <!-- Generator: Sketch 3.3.3 (12081) - http://www.bohemiancoding.com/sketch -->
    <title>Rectangle 398 + Rectangle 232 Copy 177 + Rectangle 232 Copy 175 Copy Copy Copy Copy Copy</title>
    <desc>Created with Sketch.</desc>
    <defs></defs>
    <g id="Page-1" stroke="none" stroke-width="1" fill="none" fill-rule="evenodd" sketch:type="MSPage">
        <g id="data-entry" sketch:type="MSArtboardGroup" transform="translate(-298.000000, -3138.000000)">
            <g id="Rectangle-398-+-Rectangle-232-Copy-177-+-Rectangle-232-Copy-175-Copy-Copy-Copy-Copy-Copy" sketch:type="MSLayerGroup" transform="translate(298.000000, 3138.000000)">
                <rect id="Rectangle-398" stroke="#E0E5EE" fill="#FFFFFF" sketch:type="MSShapeGroup" x="0" y="0" width="346" height="45" rx="4"></rect>
                <rect id="Rectangle-398-Copy-2" stroke="#E0E5EE" fill="#FFFFFF" sketch:type="MSShapeGroup" x="0" y="49" width="346" height="238" rx="4"></rect>
                <rect id="Rectangle-909" fill="#5876A3" sketch:type="MSShapeGroup" x="306" y="14" width="16" height="16" rx="2"></rect>
                <rect id="Rectangle-982" fill="#F7F9FB" sketch:type="MSShapeGroup" x="1" y="166" width="344" height="47"></rect>
                <rect id="Rectangle-232-Copy-175" fill="#A8B8D0" sketch:type="MSShapeGroup" x="31.1435136" y="20" width="113.856486" height="6" rx="4"></rect>
                <rect id="Rectangle-232-Copy-179" fill="#A8B8D0" sketch:type="MSShapeGroup" x="71.1435136" y="86" width="140" height="6" rx="4"></rect>
                <rect id="Rectangle-232-Copy-188" fill="#A8B8D0" sketch:type="MSShapeGroup" x="71.1435136" y="136" width="140" height="6" rx="4"></rect>
                <rect id="Rectangle-232-Copy-189" fill="#A8B8D0" sketch:type="MSShapeGroup" x="71.1435136" y="186" width="140" height="6" rx="4"></rect>
                <path d="M33.656,194.8365 L28.153,188.970265 C27.949,188.7525 27.949,188.399206 28.153,188.181441 L28.892,187.392971 C29.096,187.175206 29.4266667,187.175206 29.631,187.392971 L33.779,191.813206 C33.915,191.958265 34.1356667,191.958265 34.2716667,191.813206 L42.369,183.163324 C42.5733333,182.945559 42.904,182.945559 43.108,183.163324 L43.847,183.951794 C44.051,184.169559 44.051,184.522853 43.847,184.740618 L34.395,194.8365 C34.1906667,195.054265 33.86,195.054265 33.656,194.8365" id="Imported-Layers-Copy-3" fill="#0070D2" sketch:type="MSShapeGroup"></path>
                <rect id="Rectangle-232-Copy-190" fill="#A8B8D0" sketch:type="MSShapeGroup" x="71.1435136" y="236" width="140" height="6" rx="4"></rect>
            </g>
        </g>
    </g>
</svg>

<svg width="346" height="287" xmlns="http://www.w3.org/2000/svg"><g fill="none" fill-rule="evenodd"><rect stroke="#E0E5EE" fill="#FFF" width="346" height="45" rx="4"/><rect stroke="#E0E5EE" fill="#FFF" y="49" width="346" height="238" rx="4"/><rect fill="#5876A3" x="306" y="14" width="16" height="16" rx="2"/><path fill="#F7F9FB" d="M1 166h344v47H1z"/><rect fill="#A8B8D0" x="31.144" y="20" width="113.856" height="6" rx="4"/><rect fill="#A8B8D0" x="71.144" y="86" width="140" height="6" rx="4"/><rect fill="#A8B8D0" x="71.144" y="136" width="140" height="6" rx="4"/><rect fill="#A8B8D0" x="71.144" y="186" width="140" height="6" rx="4"/><path d="M33.656 194.837l-5.503-5.867c-.204-.218-.204-.57 0-.79l.74-.787c.203-.218.534-.218.738 0l4.15 4.42c.135.145.356.145.492 0l8.097-8.65c.203-.217.534-.217.738 0l.74.79c.203.217.203.57 0 .788l-9.453 10.096c-.204.218-.535.218-.74 0" fill="#0070D2"/><rect fill="#A8B8D0" x="71.144" y="236" width="140" height="6" rx="4"/></g></svg>
